src/actions/16/view-time-schedule-calculus.svg

<svg version="1.1" viewBox="0 0 16 16" xmlns="http://www.w3.org/2000/svg">
 <defs>
  <style id="current-color-scheme" type="text/css">.ColorScheme-Text {
        color:#363636;
      }</style>
 </defs>
 <path class="ColorScheme-Text" d="m3 6v5h1v-2h3v2h1v-5h-1v2h-3v-2zm7 3v6h5v-6zm1 1h3v1h-3zm0 2h3v2h-3z" fill="currentColor"/>
 <path d="m2 1c-1.108 0-2 0.892-2 2v10c0 1.108 0.892 2 2 2h7v-1h-7c-0.554 0-1-0.446-1-1v-8c0-0.554 0.446-1 1-1h11c0.554 0 1 0.446 1 1v3h1v-5c0-1.108-0.892-2-2-2z" class="ColorScheme-Text" fill="currentColor"/>
</svg>

<svg xmlns="http://www.w3.org/2000/svg" viewBox="0 0 16 16">
    <defs>
        <style id="current-color-scheme" type="text/css">
            .ColorScheme-Text{color:#050505;opacity:.7}
        </style>
    </defs>
    <path fill="currentColor" d="M3 6v5h1V9h3v2h1V6H7v2H4V6zm7 3v6h5V9zm1 1h3v1h-3zm0 2h3v2h-3z" class="ColorScheme-Text"/>
    <path fill="currentColor" d="M2 1C.892 1 0 1.892 0 3v10c0 1.108.892 2 2 2h7v-1H2c-.554 0-1-.446-1-1V5c0-.554.446-1 1-1h11c.554 0 1 .446 1 1v3h1V3c0-1.108-.892-2-2-2z" class="ColorScheme-Text"/>
</svg>
